X:1
T:My Bonnie Lies over the Ocean
T:Sea Shanty
T:My Bonnie Lies over the Ocean
T:Public Domain
C:Sea Shanty
Z:Public Domain
%%score ( 1 2 ) ( 3 4 )
L:1/8
M:3/4
K:Bb
V:1 treble 
V:2 treble 
V:3 bass 
V:4 bass 
V:1
 F2 | [Fd]3 [Ec] [DB]2 | [Gc]2 [GB]2 [EG]2 | [DF]2 [B,D]4- | [B,D]4 [CF]2 | [Dd]3 [Dc] [DB]2 | %6
 [=EB]2 [EA]2 [EB]2 | ([Fc-]6 | [=Ec]4) [_EF]2 | [Dd]3 [Dc] [DB]2 | c2 B2 [EG]2 | [DF]2 D4- x2 | %12
 D4 [B,F]2 | [B,G]2 [Ec]2 [=EB]2 | [EA]2 [EG]2 [EA]2 | D4 F2 | (G2 F2 E2) ||"^Refrain" [DF]6 | %18
 [FB]6 | [EG]6 | [Ec]4 [EB]2 | [EA]2 [EA]2 [EA]2 | A2 G2 [EA]2 | [DB]4 [Fc]2 | [Fd]6 | (D4 E2) | %26
 [FB]6 | (E4 F2) | (=E2 F2) [GB]2 | [FA]2 [FA]2 [FA]2 | A2 G2 [EA]2 | [DB]6- | [DB]4 |] %33
V:2
 x2 | x6 | x6 | x6 | x6 | x6 | x6 | x6 | x6 | x6 | E4 x2 | x8 | x6 | x6 | x6 | B6- | B6 || x6 | %18
 x6 | x6 | x6 | x6 | E4 x2 | x6 | x6 | F6 | x6 | G6 | c4 x2 | x6 | E4 x2 | x6 | x4 |] %33
V:3
 F,2 | [B,,B,]3 [B,,B,] [B,,B,]2 | [E,B,]4 [E,B,]2 | [B,,B,]2 [B,,F,]4- | [B,,F,]4 [A,,F,]2 | %5
 B,3 A, [G,,G,]2 | [C,G,]2 [C,C]2 [C,B,]2 | ([F,,A,]6 | [G,,B,]4) [A,,C]2 | %9
 [B,,B,]3 [B,,F,] [B,,^F,]2 | [E,G,]4 [E,B,]2 | B,,2 z2 F,2 x2 | B,2 A,2 [D,_A,]2 | %13
 [E,G,]2 [C,G,]2 [C,D]2 | [F,C]2 [F,B,]2 [F,C]2 | B,4 D2 | (E2 D2 C2) || [B,,B,]6 | [D,B,]6 | %19
 [E,B,]6 | (C2 G,2) [_G,B,]2 | [F,C]2 [F,C]2 [F,C]2 | [F,C]4 [^F,C]2 | [G,B,]4 [F,A,]2 | B,6 | %25
 (B,,4 C,2) | [D,B,]6 | ([E,B,]4 [D,=B,]2) | (C,2 D,2) [=E,C]2 | [F,C]2 [F,C]2 [F,C]2 | %30
 [F,C]4 [F,C]2 | [B,,B,]6- | [B,,B,]4 |] %33
V:4
 x2 | x6 | x6 | x6 | x6 | G,,4 x2 | x6 | x6 | x6 | x6 | x6 | B,4 B,,4- | B,,4 x2 | x6 | x6 | %15
 B,,6- | B,,6 || x6 | x6 | x6 | C,4 x2 | x6 | x6 | x6 | B,6 | B,6 | x6 | x6 | C4 x2 | x6 | x6 | %31
 x6 | x4 |] %33

